X:84
T:Off To California
C:James Hill
M:4/4
L:1/8
K:G
|:(3(DEF)|"G"G(FG)(B "D7"A)(GED)|"G"GBd(g "C"e2)(3(def|"G"g)(fg)(d e)dBG|ABA(G E2)(3(DEF|!
|"G"G)(FG)(B "D7"A)(GED)|"G"GBd(g "C"e2)(3(def|"G"g)(fg)(d "Em"e)(dBG)|"Am"A2"D7"F2"G"G2:|!
|:(ef)|"Em"(gfe)(g "D"fed2)|"Em"(3efg (3efg "D"(fe)d2|"G"g(fg)(d "Em"e)(dBG)|"Am"ABA(G "D7"E2) (3(DEF|!
|"G"G)(FG)(B "D7"A)(GED)|"G"GBd(g "C"e2)(3(def|"G"g)(fg)(d "Em"e)(dBG)|"Am"A2"D7"F2"G"G2:|

